packages/vibrant-icons/assets/icons/PlayCircle/Fill.svg

<svg width="24" height="24" viewBox="0 0 24 24" fill="none" xmlns="http://www.w3.org/2000/svg">
<path d="M19.8484 4.1509C17.7519 2.0544 14.9649 0.899902 11.9999 0.899902C9.0349 0.899902 6.2479 2.0544 4.1509 4.1509C2.0544 6.2479 0.899902 9.0349 0.899902 11.9999C0.899902 14.9649 2.0544 17.7519 4.1509 19.8484C6.2474 21.9449 9.0349 23.0999 11.9999 23.0999C14.9649 23.0999 17.7519 21.9454 19.8484 19.8484C21.9449 17.7519 23.0999 14.9649 23.0999 11.9999C23.0999 9.0349 21.9454 6.2479 19.8484 4.1509ZM9.21231 16.5026C9.14568 16.5436 9.0599 16.4957 9.0599 16.4175V7.58235C9.0599 7.50412 9.14568 7.45618 9.21231 7.49718L16.3915 11.9147C16.4549 11.9538 16.4549 12.046 16.3915 12.0851L9.21231 16.5026Z" fill="#0C0C0C"/>
</svg>

<svg xmlns="http://www.w3.org/2000/svg" width="24" height="24" fill="none"><path fill="#0C0C0C" d="M19.848 4.15A11.03 11.03 0 0 0 12 .9a11.03 11.03 0 0 0-7.85 3.25A11.03 11.03 0 0 0 .9 12c0 2.965 1.154 5.752 3.25 7.848A11.03 11.03 0 0 0 12 23.1c2.965 0 5.752-1.155 7.848-3.252A11.03 11.03 0 0 0 23.1 12c0-2.965-1.155-5.752-3.252-7.85M9.212 16.504a.1.1 0 0 1-.152-.085V7.582a.1.1 0 0 1 .152-.085l7.18 4.418a.1.1 0 0 1 0 .17z"/></svg>
